extension/assets/logo-light.svg

<?xml version="1.0" encoding="UTF-8" standalone="no"?>
<svg
   width="74"
   height="74"
   viewBox="0 0 74 74"
   fill="none"
   version="1.1"
   id="svg17"
   sodipodi:docname="favicon.svg"
   inkscape:version="1.4.2 (1:1.4.2+202505120737+ebf0e940d0)"
   xmlns:inkscape="http://www.inkscape.org/namespaces/inkscape"
   xmlns:sodipodi="http://sodipodi.sourceforge.net/DTD/sodipodi-0.dtd"
   xmlns="http://www.w3.org/2000/svg"
   xmlns:svg="http://www.w3.org/2000/svg">
  <sodipodi:namedview
     id="namedview17"
     pagecolor="#ffffff"
     bordercolor="#000000"
     borderopacity="0.25"
     inkscape:showpageshadow="2"
     inkscape:pageopacity="0.0"
     inkscape:pagecheckerboard="0"
     inkscape:deskcolor="#d1d1d1"
     inkscape:zoom="6.9189189"
     inkscape:cx="41.263672"
     inkscape:cy="33.169922"
     inkscape:window-width="1920"
     inkscape:window-height="1108"
     inkscape:window-x="0"
     inkscape:window-y="53"
     inkscape:window-maximized="1"
     inkscape:current-layer="svg17" />
  <path
     d="m 21.0443,18.4934 12.138,12.2855 H 16 V 44.2211 H 33.1429 L 21.0049,56.5066 30.3842,66 40,56.2673 V 44.2211 C 37.1232,40.1924 37.1232,34.7677 40,30.739 V 18.7327 L 30.3842,9 Z"
     fill="#ffffff"
     id="path12" />
  <path
     d="M 45,48 V 28 h 7.0431 C 56.6715,28 59,29.9225 59,33.8824 c 0,3.9885 -2.386,6.0832 -6.9569,6.0832 H 49.4846 V 48 Z m 4.4846,-12.1664 h 2.0986 c 1.8398,0 2.9035,-0.287 2.9035,-1.8939 0,-1.5208 -0.92,-1.8077 -2.9035,-1.8077 h -2.0986 z"
     fill="#ffffff"
     id="path13" />
  <rect
     width="74.132812"
     height="74"
     rx="6.9190626"
     fill="#00d1ff"
     id="rect13"
     x="0"
     y="0"
     style="stroke-width:0.994202" />
  <rect
     width="74.132812"
     height="74"
     rx="6.9190626"
     fill="url(#paint0_linear_1339_524)"
     id="rect14"
     x="0"
     y="0"
     style="fill:url(#paint0_linear_1339_524);stroke-width:0.994202" />
  <path
     d="m 12.0443,18.4934 12.138,12.2855 H 7 V 44.2211 H 24.1429 L 12.0049,56.5066 21.3842,66 31,56.2673 V 44.2211 C 28.1232,40.1924 28.1232,34.7677 31,30.739 V 18.7327 L 21.3842,9 Z"
     fill="#ffffff"
     id="path14" />
  <path
     d="M 56,48 V 28 h 7.2083 c 4.737,0 7.1201,1.9225 7.1201,5.8824 0,3.9885 -2.442,6.0832 -7.1201,6.0832 H 60.5898 V 48 Z m 4.5898,-12.1664 h 2.1478 c 1.883,0 2.9716,-0.287 2.9716,-1.8939 0,-1.5208 -0.9415,-1.8077 -2.9716,-1.8077 h -2.1478 z"
     fill="#ffffff"
     id="path15" />
  <path
     d="M 36,48 V 28 h 6.1872 C 49.052,28 53,31.6729 53,38.1578 53,44.528 49.1698,48 42.1577,48 Z m 4.6256,-4.132 h 1.0607 c 4.1837,0 6.6586,-1.0617 6.6586,-5.8823 0,-4.6485 -2.3865,-5.8537 -6.2461,-5.8537 h -1.4732 z"
     fill="#ffffff"
     id="path16" />
  <defs
     id="defs17">
    <linearGradient
       id="paint0_linear_1339_524"
       x1="75"
       y1="-2.2653801e-06"
       x2="-4.68493e-07"
       y2="74"
       gradientUnits="userSpaceOnUse"
       gradientTransform="scale(0.9884375,1)">
      <stop
         offset="0.239583"
         stop-color="#00D1FF"
         id="stop16"
         style="stop-color:#1a71c2;stop-opacity:1;" />
      <stop
         offset="1"
         stop-color="#AEFFEC"
         id="stop17"
         style="stop-color:#d8ebf4;stop-opacity:1;" />
    </linearGradient>
  </defs>
</svg>

<?xml version="1.0" encoding="UTF-8" standalone="no"?>
<svg
   width="210"
   height="74"
   viewBox="0 0 210 74"
   fill="none"
   version="1.1"
   id="svg17"
   sodipodi:docname="logo-light.svg"
   inkscape:version="1.4.2 (1:1.4.2+202505120737+ebf0e940d0)"
   xmlns:inkscape="http://www.inkscape.org/namespaces/inkscape"
   xmlns:sodipodi="http://sodipodi.sourceforge.net/DTD/sodipodi-0.dtd"
   xmlns="http://www.w3.org/2000/svg"
   xmlns:svg="http://www.w3.org/2000/svg">
  <sodipodi:namedview
     id="namedview17"
     pagecolor="#ffffff"
     bordercolor="#000000"
     borderopacity="0.25"
     inkscape:showpageshadow="2"
     inkscape:pageopacity="0.0"
     inkscape:pagecheckerboard="0"
     inkscape:deskcolor="#d1d1d1"
     inkscape:zoom="4.8924145"
     inkscape:cx="99.644051"
     inkscape:cy="32.397091"
     inkscape:window-width="1920"
     inkscape:window-height="1108"
     inkscape:window-x="0"
     inkscape:window-y="53"
     inkscape:window-maximized="1"
     inkscape:current-layer="svg17" />
  <path
     d="M148.467 15.9102C152.367 15.9102 154.797 18.1002 154.797 21.6702V31.0002H151.497L151.197 29.0802C150.327 30.4602 148.647 31.3002 146.697 31.3002C143.577 31.3002 141.357 29.2902 141.357 26.4702C141.357 24.7302 142.137 23.4102 143.577 22.7502C144.567 22.3002 145.827 22.0902 147.507 22.0902H151.197V21.6702C151.197 20.0502 150.117 19.0602 148.407 19.0602C146.907 19.0602 145.497 19.8402 144.417 21.2802L141.807 19.0902C143.577 16.9602 145.767 15.9102 148.467 15.9102ZM147.267 28.2402C149.427 28.2402 151.197 26.7102 151.197 24.7902H147.987C146.757 24.7902 146.037 24.9402 145.557 25.3002C145.167 25.5702 144.957 25.9902 144.957 26.5302C144.957 27.5802 145.827 28.2402 147.267 28.2402Z"
     fill="black"
     id="path1" />
  <path
     d="M139.495 19.0595H135.805V26.5895C135.805 27.7595 136.525 28.2995 137.695 28.2995C138.205 28.2995 138.835 28.1795 139.495 27.9695V30.8495C138.595 31.1495 137.695 31.2995 136.795 31.2995C134.305 31.2995 132.205 30.0095 132.205 26.8595V19.0595H129.805V16.2095H132.205V13.3595L135.805 10.6895V16.2095H139.495V19.0595Z"
     fill="black"
     id="path2" />
  <path
     d="M121.573 15.9102C125.473 15.9102 127.903 18.1002 127.903 21.6702V31.0002H124.603L124.303 29.0802C123.433 30.4602 121.753 31.3002 119.803 31.3002C116.683 31.3002 114.463 29.2902 114.463 26.4702C114.463 24.7302 115.243 23.4102 116.683 22.7502C117.673 22.3002 118.933 22.0902 120.613 22.0902H124.303V21.6702C124.303 20.0502 123.223 19.0602 121.513 19.0602C120.013 19.0602 118.603 19.8402 117.523 21.2802L114.913 19.0902C116.683 16.9602 118.873 15.9102 121.573 15.9102ZM120.373 28.2402C122.533 28.2402 124.303 26.7102 124.303 24.7902H121.093C119.863 24.7902 119.143 24.9402 118.663 25.3002C118.273 25.5702 118.063 25.9902 118.063 26.5302C118.063 27.5802 118.933 28.2402 120.373 28.2402Z"
     fill="black"
     id="path3" />
  <path
     d="M95.6406 30.9998V10.0898H101.701C108.631 10.0898 112.591 13.9298 112.591 20.7098C112.591 27.3698 108.751 30.9998 101.671 30.9998H95.6406ZM99.3906 27.5498H101.311C106.591 27.5498 108.811 25.4798 108.811 20.5598C108.811 15.7298 106.591 13.5398 101.641 13.5398H99.3906V27.5498Z"
     fill="black"
     id="path4" />
  <path
     d="M203.164 49.5996C208.084 49.5996 209.974 53.1696 209.794 56.9496L209.764 57.6096L198.754 57.5796C198.964 60.3396 200.524 62.0496 203.404 62.0496C205.414 62.0496 206.704 61.2096 207.304 59.3796L209.404 60.4596C208.504 62.5896 206.734 64.2996 203.314 64.2996C198.184 64.2996 196.234 60.4896 196.234 56.9196C196.234 53.3796 198.124 49.5996 203.164 49.5996ZM203.224 51.8496C200.734 51.8496 199.294 53.1996 198.874 55.3896L207.184 55.4196C207.004 52.9596 205.474 51.8496 203.224 51.8496Z"
     fill="black"
     id="path5" />
  <path
     d="M192.592 49.8996L192.622 63.8796C192.622 68.7696 189.952 70.8996 185.782 70.8996C182.752 70.8996 180.712 69.7896 179.662 66.9696L181.732 65.8596C182.452 67.7196 183.442 68.6496 185.812 68.6496C190.102 68.6496 190.102 65.6196 190.132 63.8196L190.162 62.2896C189.232 63.4596 187.822 64.2996 185.722 64.2996C181.072 64.2996 179.242 60.2796 179.242 56.9496C179.242 53.6196 181.072 49.5996 185.722 49.5996C187.762 49.5996 189.142 50.3796 190.072 51.5196L191.092 49.8996H192.592ZM185.932 62.0496C188.572 62.0496 190.462 60.0396 190.462 56.9196C190.462 53.7996 188.572 51.8496 185.932 51.8496C183.262 51.8496 181.732 53.8296 181.732 56.9496C181.732 60.0696 183.292 62.0496 185.932 62.0496Z"
     fill="black"
     id="path6" />
  <path
     d="M174.612 61.7796H176.742V63.9996H173.052L172.152 62.2596C171.222 63.6096 169.662 64.2996 167.652 64.2996C164.622 64.2996 162.582 62.7696 162.582 59.9796C162.582 53.9796 172.122 57.7896 172.122 54.5796V54.4896C172.122 53.1696 171.222 51.8496 169.032 51.8496C167.082 51.8496 165.972 52.8996 165.372 54.5196L163.272 53.4396C164.472 50.5296 166.842 49.5996 169.092 49.5996C172.392 49.5996 174.612 51.5796 174.612 54.6096V61.7796ZM167.742 62.0496C171.162 62.0496 172.122 60.0696 172.122 58.8696V57.0396C169.722 58.2696 165.072 57.1296 165.072 60.0696C165.072 61.8396 166.632 62.0496 167.742 62.0496Z"
     fill="black"
     id="path7" />
  <path
     d="M156.092 64L151.202 56.95L148.652 59.86V64H146.162V43H148.652V56.77L154.742 49.9H157.862L152.792 55.24L159.002 64H156.092Z"
     fill="black"
     id="path8" />
  <path
     d="M136.25 62.0496C138.41 62.0496 139.43 60.8796 140.06 59.1396L142.22 60.2196C141.29 62.3796 139.73 64.2996 136.25 64.2996C131.48 64.2996 129.32 60.4896 129.32 56.9496C129.32 53.4096 131.48 49.5996 136.25 49.5996C139.7 49.5996 141.32 51.5196 142.22 53.6796L140.06 54.7596C139.43 53.0196 138.41 51.8496 136.25 51.8496C133.61 51.8496 131.81 53.8296 131.81 56.9496C131.81 60.0696 133.61 62.0496 136.25 62.0496Z"
     fill="black"
     id="path9" />
  <path
     d="M124.18 61.7796H126.31V63.9996H122.62L121.72 62.2596C120.79 63.6096 119.23 64.2996 117.22 64.2996C114.19 64.2996 112.15 62.7696 112.15 59.9796C112.15 53.9796 121.69 57.7896 121.69 54.5796V54.4896C121.69 53.1696 120.79 51.8496 118.6 51.8496C116.65 51.8496 115.54 52.8996 114.94 54.5196L112.84 53.4396C114.04 50.5296 116.41 49.5996 118.66 49.5996C121.96 49.5996 124.18 51.5796 124.18 54.6096V61.7796ZM117.31 62.0496C120.73 62.0496 121.69 60.0696 121.69 58.8696V57.0396C119.29 58.2696 114.64 57.1296 114.64 60.0696C114.64 61.8396 116.2 62.0496 117.31 62.0496Z"
     fill="black"
     id="path10" />
  <path
     d="M103.26 43C107.64 43 109.44 46.12 109.44 49.12C109.44 52.12 107.64 55.24 103.26 55.24H97.7102V64H95.1602V43H103.26ZM102.99 52.93C106.44 52.93 106.89 50.59 106.89 49.12C106.89 47.65 106.44 45.31 102.99 45.31H97.7102V52.93H102.99Z"
     fill="black"
     id="path11" />
  <path
     d="M21.0443 18.4934L33.1823 30.7789H16V44.2211H33.1429L21.0049 56.5066L30.3842 66L40 56.2673V44.2211C37.1232 40.1924 37.1232 34.7677 40 30.739V18.7327L30.3842 9L21.0443 18.4934Z"
     fill="white"
     id="path12" />
  <path
     d="M45 48V28H52.0431C56.6715 28 59 29.9225 59 33.8824C59 37.8709 56.614 39.9656 52.0431 39.9656H49.4846V48H45ZM49.4846 35.8336H51.5832C53.423 35.8336 54.4867 35.5466 54.4867 33.9397C54.4867 32.4189 53.5667 32.132 51.5832 32.132H49.4846V35.8336Z"
     fill="white"
     id="path13" />
  <rect
     width="75"
     height="74"
     rx="7"
     fill="#00D1FF"
     id="rect13" />
  <rect
     width="75"
     height="74"
     rx="7"
     fill="url(#paint0_linear_1339_524)"
     id="rect14" />
  <path
     d="M12.0443 18.4934L24.1823 30.7789H7V44.2211H24.1429L12.0049 56.5066L21.3842 66L31 56.2673V44.2211C28.1232 40.1924 28.1232 34.7677 31 30.739V18.7327L21.3842 9L12.0443 18.4934Z"
     fill="white"
     id="path14" />
  <path
     d="M56 48V28H63.2083C67.9453 28 70.3284 29.9225 70.3284 33.8824C70.3284 37.8709 67.8864 39.9656 63.2083 39.9656H60.5898V48H56ZM60.5898 35.8336H62.7376C64.6206 35.8336 65.7092 35.5466 65.7092 33.9397C65.7092 32.4189 64.7677 32.132 62.7376 32.132H60.5898V35.8336Z"
     fill="white"
     id="path15" />
  <path
     d="M36 48V28H42.1872C49.052 28 53 31.6729 53 38.1578C53 44.528 49.1698 48 42.1577 48H36ZM40.6256 43.868H41.6863C45.87 43.868 48.3449 42.8063 48.3449 37.9857C48.3449 33.3372 45.9584 32.132 42.0988 32.132H40.6256V43.868Z"
     fill="white"
     id="path16" />
  <defs
     id="defs17">
    <linearGradient
       id="paint0_linear_1339_524"
       x1="75"
       y1="-2.26538e-06"
       x2="-4.68493e-07"
       y2="74"
       gradientUnits="userSpaceOnUse">
      <stop
         offset="0.239583"
         stop-color="#00D1FF"
         id="stop16"
         style="stop-color:#1a71c2;stop-opacity:1;" />
      <stop
         offset="1"
         stop-color="#AEFFEC"
         id="stop17"
         style="stop-color:#d8ebf4;stop-opacity:1;" />
    </linearGradient>
  </defs>
</svg>
